assets/img/braze_icons/activity-heart.svg

<svg fill="none" height="24" viewBox="0 0 24 24" width="24" xmlns="http://www.w3.org/2000/svg"><path clip-rule="evenodd" d="m3.50509 3.54972c2.6873-2.2961 6.14776-1.87764 8.48771.16725 2.3372-2.04567 5.7608-2.43445 8.478-.17602 2.9736 2.47149 3.3307 6.68655 1.0409 9.63305-.7951 1.0231-2.2744 2.5087-3.7573 3.9228-1.4995 1.43-3.0582 2.8389-4.0503 3.7242l-.022.0196c-.1625.1451-.3251.2902-.475.4039-.1685.1277-.3754.2592-.6393.3384-.3721.1116-.7772.1116-1.1493 0-.2639-.0792-.4708-.2107-.6393-.3384-.1499-.1137-.3124-.2587-.475-.4039l-.022-.0196c-.99213-.8853-2.55078-2.2942-4.05029-3.7242-1.48288-1.4141-2.96226-2.8997-3.75732-3.9228-2.298619-2.9579-1.876289-7.14066 1.0305-9.62428zm8.44361 4.63406c-.1279-.3837-.4744-.65258-.8778-.68125-.4035-.02867-.7844.18851-.9653.55027l-1.22363 2.4472h-.38197c-.55228 0-1 .4477-1 1s.44772 1 1 1h1c.37877 0 .725-.214.8944-.5528l.4204-.8406 1.2365 3.7096c.1279.3837.4744.6526.8778.6813.4035.0287.7844-.1885.9653-.5503l1.2236-2.4472h.382c.5523 0 1-.4477 1-1s-.4477-1-1-1h-1c-.3788 0-.725.214-.8944.5528l-.4204.8407z" fill="#801ed7" fill-rule="evenodd"/></svg>

<svg width="24" height="24" viewBox="0 0 24 24" fill="none" xmlns="http://www.w3.org/2000/svg">
<path fill-rule="evenodd" clip-rule="evenodd" d="M3.50509 3.54972C6.19239 1.25362 9.65285 1.67208 11.9928 3.71697C14.33 1.6713 17.7536 1.28252 20.4708 3.54095C23.4444 6.01244 23.8015 10.2275 21.5117 13.174C20.7166 14.1971 19.2373 15.6827 17.7544 17.0968C16.2549 18.5268 14.6962 19.9357 13.7041 20.821L13.6821 20.8406C13.5196 20.9857 13.357 21.1308 13.2071 21.2445C13.0386 21.3722 12.8317 21.5037 12.5678 21.5829C12.1957 21.6945 11.7906 21.6945 11.4185 21.5829C11.1546 21.5037 10.9477 21.3722 10.7792 21.2445C10.6293 21.1308 10.4668 20.9858 10.3042 20.8406L10.2822 20.821C9.29007 19.9357 7.73142 18.5268 6.23191 17.0968C4.74903 15.6827 3.26965 14.1971 2.47459 13.174C0.175971 10.2161 0.598301 6.03334 3.50509 3.54972ZM11.9487 8.18378C11.8208 7.80008 11.4743 7.5312 11.0709 7.50253C10.6674 7.47386 10.2865 7.69104 10.1056 8.0528L8.88197 10.5H8.5C7.94772 10.5 7.5 10.9477 7.5 11.5C7.5 12.0523 7.94772 12.5 8.5 12.5H9.5C9.87877 12.5 10.225 12.286 10.3944 11.9472L10.8148 11.1066L12.0513 14.8162C12.1792 15.1999 12.5257 15.4688 12.9291 15.4975C13.3326 15.5262 13.7135 15.309 13.8944 14.9472L15.118 12.5H15.5C16.0523 12.5 16.5 12.0523 16.5 11.5C16.5 10.9477 16.0523 10.5 15.5 10.5H14.5C14.1212 10.5 13.775 10.714 13.6056 11.0528L13.1852 11.8935L11.9487 8.18378Z" fill="#801ED7"/>
</svg>
